Newaita-dark/mimetypes/48/x-kde-nsplugin-generated.svg

<svg height="48pt" viewBox="0 0 48 48" width="48pt" xmlns="http://www.w3.org/2000/svg" xmlns:xlink="http://www.w3.org/1999/xlink"><linearGradient id="a"><stop offset="0" stop-opacity=".27451"/><stop offset="1" stop-opacity="0"/></linearGradient><linearGradient id="b" gradientUnits="userSpaceOnUse" x1="24.807066" x2="24.807066" xlink:href="#a" y1="42.0509015" y2="44.03546750005"/><linearGradient id="c"><stop offset="0" stop-opacity=".313725"/><stop offset=".222222" stop-opacity=".27451"/><stop offset="1" stop-opacity="0"/></linearGradient><radialGradient id="d" cx="450.908936" cy="189.579361" gradientTransform="matrix(.00000026 -.117199 -.210958 -.00000015 74.226854 95.392996)" gradientUnits="userSpaceOnUse" r="21.166656" xlink:href="#c"/><radialGradient id="e" cx="450.908936" cy="189.579361" gradientTransform="matrix(-.00000026 .117199 .210958 .00000015 -27.589573 -11.291221)" gradientUnits="userSpaceOnUse" r="21.166656" xlink:href="#c"/><radialGradient id="f" cx="450.908936" cy="189.579361" gradientTransform="matrix(-.00000026 -.117199 .210958 -.00000015 -27.589573 95.392996)" gradientUnits="userSpaceOnUse" r="21.166656" xlink:href="#c"/><radialGradient id="g" cx="450.908936" cy="189.579361" gradientTransform="matrix(.00000026 .117199 -.210958 .00000015 74.226851 -11.291222)" gradientUnits="userSpaceOnUse" r="21.166656" xlink:href="#c"/><linearGradient id="h" gradientUnits="userSpaceOnUse" x1="23.318674" x2="23.318674" y1="42.05096580616" y2="4.34417266504"><stop offset="0" stop-color="#ffcc80"/><stop offset="1" stop-color="#ffe0b2"/></linearGradient><linearGradient id="i" gradientTransform="matrix(.0448412 0 0 .164078 22.563634 -24.541366)" gradientUnits="userSpaceOnUse" x1="249.189423" x2="249.189423" xlink:href="#a" y1="233.5" y2="254.666687"/><linearGradient id="j"><stop offset="0" stop-color="#ffa726"/><stop offset="1" stop-color="#ffb74d"/></linearGradient><linearGradient id="k" gradientUnits="userSpaceOnUse" x1="31.7530469999" x2="31.7530469999" xlink:href="#j" y1="42.0509015" y2="4.34415649995"/><linearGradient id="l" gradientUnits="userSpaceOnUse" x1="880" x2="880" xlink:href="#j" y1="1695.118164" y2="175.118118"/><path d="m11.90625 42.050781h22.824219v1.984375h-22.824219zm0 0" fill="url(#b)"/><path d="m34.730469 42.050781h3.96875v-1.984375h-3.96875zm0 0" fill="url(#d)"/><path d="m11.90625 42.050781h-3.96875v1.984375h3.96875zm0 0" fill="url(#e)"/><path d="m11.90625 42.050781h-3.96875v-1.984375h3.96875zm0 0" fill="url(#f)"/><path d="m34.730469 42.050781h3.96875v1.984375h-3.96875zm0 0" fill="url(#g)"/><path d="m27.8125 4.34375h-17.890625c-1.097656 0-1.984375.886719-1.984375 1.984375v33.738281c0 1.097656.886719 1.984375 1.984375 1.984375h26.792969c1.097656 0 1.984375-.886719 1.984375-1.984375v-24.835937zm0 0" fill="url(#h)"/><path d="m7.9375 39.296875v.769531c0 1.097656.886719 1.984375 1.984375 1.984375h26.792969c1.097656 0 1.984375-.886719 1.984375-1.984375v-.769531c0 1.097656-.886719 1.984375-1.984375 1.984375h-26.792969c-1.097656 0-1.984375-.886719-1.984375-1.984375zm0 0" fill-opacity=".235294"/><path d="m27.785156 13.769531h9.425782l1.488281 1.488281v1.984376h-10.914063zm0 0" fill="url(#i)"/><path d="m9.921875 4.34375c-1.097656 0-1.984375.886719-1.984375 1.984375v.746094c0-1.101563.886719-1.984375 1.984375-1.984375h17.890625l10.886719 10.882812v-.742187l-10.886719-10.886719zm0 0" fill="#f6f6f6" fill-opacity=".588235"/><path d="m38.699219 15.230469-10.886719-10.886719v8.902344c0 1.097656.886719 1.984375 1.984375 1.984375zm0 0" fill="url(#k)"/><path d="m27.8125 12.777344v.46875c0 1.097656.886719 1.984375 1.984375 1.984375h8.902344l-.46875-.46875h-8.433594c-1.097656 0-1.984375-.882813-1.984375-1.984375zm0 0" fill-opacity=".235294"/><path d="m27.8125 4.34375v.746094l10.140625 10.140625h.746094zm0 0" fill="#fff" fill-opacity=".392157"/><path d="m27.8125 4.203125c-.078125 0-.140625.0625-.140625.140625v8.902344c0 1.175781.949219 2.125 2.125 2.125h8.902344c.058593 0 .109375-.035156.128906-.085938.023437-.054687.011719-.113281-.03125-.15625l-10.882813-10.882812c-.027343-.027344-.066406-.042969-.101562-.042969zm.140625.480469 10.40625 10.40625h-8.5625c-1.023437 0-1.84375-.820313-1.84375-1.84375zm0 0" fill="#212121"/><path d="m9.921875 4.203125c-1.175781 0-2.125.949219-2.125 2.125v33.738281c0 1.175782.949219 2.125 2.125 2.125h26.792969c1.175781 0 2.125-.949218 2.125-2.125v-24.835937c0-.039063-.015625-.074219-.042969-.101563l-10.882813-10.882812c-.027343-.027344-.0625-.042969-.101562-.042969zm0 .28125h17.832031l10.804688 10.804687v24.777344c0 1.023438-.820313 1.84375-1.84375 1.84375h-26.792969c-1.023437 0-1.84375-.820312-1.84375-1.84375v-33.738281c0-1.023437.820313-1.84375 1.84375-1.84375zm0 0" fill="#212121"/><path d="m619.940831 695.051773c-11.02257 0-19.998091 8.975521-19.998091 19.998091v200.138379h36.05955c20.627953-36.059551 59.364413-59.994274 103.927089-59.994274 66.607816 0 120.146013 53.380732 120.146013 119.988548 0 66.45035-53.538197 119.988548-120.146013 119.988548-44.562676 0-83.299136-24.092189-103.927089-59.994274h-36.05955v199.980913c0 11.02257 8.975521 19.998091 19.998091 19.998091h380.121201c11.02257 0 19.998091-8.975521 19.998091-19.998091v-199.980913h35.902085c20.627953 35.902085 59.521878 59.994274 104.084554 59.994274 66.450351 0 119.988548-53.538198 119.988548-119.988548 0-66.607816-53.538197-119.988548-119.988548-119.988548-44.562676 0-83.456601 23.934723-104.084554 59.994274h-35.902085v-200.138379c0-11.02257-8.975521-19.998091-19.998091-19.998091zm0 0" fill="url(#l)" stroke="#212121" stroke-linecap="round" stroke-linejoin="round" stroke-width="11.338583" transform="scale(.0248071)"/></svg>

<?xml version="1.0" encoding="UTF-8"?>
<svg xmlns="http://www.w3.org/2000/svg" xmlns:xlink="http://www.w3.org/1999/xlink" width="48pt" height="48pt" viewBox="0 0 48 48" version="1.1">
<defs>
<linearGradient id="linear0" gradientUnits="userSpaceOnUse" x1="254" y1="233.5" x2="254" y2="254.666672" gradientTransform="matrix(0.093759,0,0,0.093759,0.99228,20.158175)">
<stop offset="0" style="stop-color:rgb(0%,0%,0%);stop-opacity:0.27451;"/>
<stop offset="1" style="stop-color:rgb(0%,0%,0%);stop-opacity:0;"/>
</linearGradient>
<radialGradient id="radial0" gradientUnits="userSpaceOnUse" cx="450.908936" cy="189.579361" fx="450.908936" fy="189.579361" r="21.166656" gradientTransform="matrix(0.000000261256,-0.117199,-0.210958,-0.000000152308,74.226854,95.392996)">
<stop offset="0" style="stop-color:rgb(0%,0%,0%);stop-opacity:0.313725;"/>
<stop offset="0.222222" style="stop-color:rgb(0%,0%,0%);stop-opacity:0.27451;"/>
<stop offset="1" style="stop-color:rgb(0%,0%,0%);stop-opacity:0;"/>
</radialGradient>
<radialGradient id="radial1" gradientUnits="userSpaceOnUse" cx="450.908936" cy="189.579361" fx="450.908936" fy="189.579361" r="21.166656" gradientTransform="matrix(-0.000000261256,0.117199,0.210958,0.000000152308,-27.589573,-11.291221)">
<stop offset="0" style="stop-color:rgb(0%,0%,0%);stop-opacity:0.313725;"/>
<stop offset="0.222222" style="stop-color:rgb(0%,0%,0%);stop-opacity:0.27451;"/>
<stop offset="1" style="stop-color:rgb(0%,0%,0%);stop-opacity:0;"/>
</radialGradient>
<radialGradient id="radial2" gradientUnits="userSpaceOnUse" cx="450.908936" cy="189.579361" fx="450.908936" fy="189.579361" r="21.166656" gradientTransform="matrix(-0.000000261256,-0.117199,0.210958,-0.000000152308,-27.589573,95.392996)">
<stop offset="0" style="stop-color:rgb(0%,0%,0%);stop-opacity:0.313725;"/>
<stop offset="0.222222" style="stop-color:rgb(0%,0%,0%);stop-opacity:0.27451;"/>
<stop offset="1" style="stop-color:rgb(0%,0%,0%);stop-opacity:0;"/>
</radialGradient>
<radialGradient id="radial3" gradientUnits="userSpaceOnUse" cx="450.908936" cy="189.579361" fx="450.908936" fy="189.579361" r="21.166656" gradientTransform="matrix(0.000000261256,0.117199,-0.210958,0.000000152308,74.226851,-11.291222)">
<stop offset="0" style="stop-color:rgb(0%,0%,0%);stop-opacity:0.313725;"/>
<stop offset="0.222222" style="stop-color:rgb(0%,0%,0%);stop-opacity:0.27451;"/>
<stop offset="1" style="stop-color:rgb(0%,0%,0%);stop-opacity:0;"/>
</radialGradient>
<linearGradient id="linear1" gradientUnits="userSpaceOnUse" x1="940" y1="1695.118164" x2="940" y2="175.118118" gradientTransform="matrix(0.0248071,0,0,0.0248071,0,0)">
<stop offset="0" style="stop-color:rgb(100%,80%,50.196078%);stop-opacity:1;"/>
<stop offset="1" style="stop-color:rgb(100%,87.843137%,69.803922%);stop-opacity:1;"/>
</linearGradient>
<linearGradient id="linear2" gradientUnits="userSpaceOnUse" x1="249.189423" y1="233.5" x2="249.189423" y2="254.666687" gradientTransform="matrix(0.0448412,0,0,0.164078,22.563634,-24.541366)">
<stop offset="0" style="stop-color:rgb(0%,0%,0%);stop-opacity:0.27451;"/>
<stop offset="1" style="stop-color:rgb(0%,0%,0%);stop-opacity:0;"/>
</linearGradient>
<linearGradient id="linear3" gradientUnits="userSpaceOnUse" x1="338.666656" y1="233.5" x2="338.666656" y2="-168.666672" gradientTransform="matrix(0.093759,0,0,0.093759,0,20.158175)">
<stop offset="0" style="stop-color:rgb(100%,65.490196%,14.901961%);stop-opacity:1;"/>
<stop offset="1" style="stop-color:rgb(100%,71.764706%,30.196078%);stop-opacity:1;"/>
</linearGradient>
<linearGradient id="linear4" gradientUnits="userSpaceOnUse" x1="880" y1="1695.118164" x2="880" y2="175.118118" gradientTransform="matrix(1,0,0,1,0,0)">
<stop offset="0" style="stop-color:rgb(100%,65.490196%,14.901961%);stop-opacity:1;"/>
<stop offset="1" style="stop-color:rgb(100%,71.764706%,30.196078%);stop-opacity:1;"/>
</linearGradient>
</defs>
<g id="surface1">
<path style=" stroke:none;fill-rule:nonzero;fill:url(#linear0);" d="M 11.90625 42.050781 L 34.730469 42.050781 L 34.730469 44.035156 L 11.90625 44.035156 Z M 11.90625 42.050781 "/>
<path style=" stroke:none;fill-rule:nonzero;fill:url(#radial0);" d="M 34.730469 42.050781 L 38.699219 42.050781 L 38.699219 40.066406 L 34.730469 40.066406 Z M 34.730469 42.050781 "/>
<path style=" stroke:none;fill-rule:nonzero;fill:url(#radial1);" d="M 11.90625 42.050781 L 7.9375 42.050781 L 7.9375 44.035156 L 11.90625 44.035156 Z M 11.90625 42.050781 "/>
<path style=" stroke:none;fill-rule:nonzero;fill:url(#radial2);" d="M 11.90625 42.050781 L 7.9375 42.050781 L 7.9375 40.066406 L 11.90625 40.066406 Z M 11.90625 42.050781 "/>
<path style=" stroke:none;fill-rule:nonzero;fill:url(#radial3);" d="M 34.730469 42.050781 L 38.699219 42.050781 L 38.699219 44.035156 L 34.730469 44.035156 Z M 34.730469 42.050781 "/>
<path style=" stroke:none;fill-rule:nonzero;fill:url(#linear1);" d="M 27.8125 4.34375 L 9.921875 4.34375 C 8.824219 4.34375 7.9375 5.230469 7.9375 6.328125 L 7.9375 40.066406 C 7.9375 41.164062 8.824219 42.050781 9.921875 42.050781 L 36.714844 42.050781 C 37.8125 42.050781 38.699219 41.164062 38.699219 40.066406 L 38.699219 15.230469 Z M 27.8125 4.34375 "/>
<path style=" stroke:none;fill-rule:nonzero;fill:rgb(0%,0%,0%);fill-opacity:0.235294;" d="M 7.9375 39.296875 L 7.9375 40.066406 C 7.9375 41.164062 8.824219 42.050781 9.921875 42.050781 L 36.714844 42.050781 C 37.8125 42.050781 38.699219 41.164062 38.699219 40.066406 L 38.699219 39.296875 C 38.699219 40.394531 37.8125 41.28125 36.714844 41.28125 L 9.921875 41.28125 C 8.824219 41.28125 7.9375 40.394531 7.9375 39.296875 Z M 7.9375 39.296875 "/>
<path style=" stroke:none;fill-rule:nonzero;fill:url(#linear2);" d="M 27.785156 13.769531 L 37.210938 13.769531 L 38.699219 15.257812 L 38.699219 17.242188 L 27.785156 17.242188 Z M 27.785156 13.769531 "/>
<path style=" stroke:none;fill-rule:nonzero;fill:rgb(96.470588%,96.470588%,96.470588%);fill-opacity:0.588235;" d="M 9.921875 4.34375 C 8.824219 4.34375 7.9375 5.230469 7.9375 6.328125 L 7.9375 7.074219 C 7.9375 5.972656 8.824219 5.089844 9.921875 5.089844 L 27.8125 5.089844 L 38.699219 15.972656 L 38.699219 15.230469 L 27.8125 4.34375 Z M 9.921875 4.34375 "/>
<path style=" stroke:none;fill-rule:nonzero;fill:url(#linear3);" d="M 38.699219 15.230469 L 27.8125 4.34375 L 27.8125 13.246094 C 27.8125 14.34375 28.699219 15.230469 29.796875 15.230469 Z M 38.699219 15.230469 "/>
<path style=" stroke:none;fill-rule:nonzero;fill:rgb(0%,0%,0%);fill-opacity:0.235294;" d="M 27.8125 12.777344 L 27.8125 13.246094 C 27.8125 14.34375 28.699219 15.230469 29.796875 15.230469 L 38.699219 15.230469 L 38.230469 14.761719 L 29.796875 14.761719 C 28.699219 14.761719 27.8125 13.878906 27.8125 12.777344 Z M 27.8125 12.777344 "/>
<path style=" stroke:none;fill-rule:nonzero;fill:rgb(100%,100%,100%);fill-opacity:0.392157;" d="M 27.8125 4.34375 L 27.8125 5.089844 L 37.953125 15.230469 L 38.699219 15.230469 Z M 27.8125 4.34375 "/>
<path style=" stroke:none;fill-rule:nonzero;fill:rgb(12.941177%,12.941177%,12.941177%);fill-opacity:1;" d="M 27.8125 4.203125 C 27.734375 4.203125 27.671875 4.265625 27.671875 4.34375 L 27.671875 13.246094 C 27.671875 14.421875 28.621094 15.371094 29.796875 15.371094 L 38.699219 15.371094 C 38.757812 15.371094 38.808594 15.335938 38.828125 15.285156 C 38.851562 15.230469 38.839844 15.171875 38.796875 15.128906 L 27.914062 4.246094 C 27.886719 4.21875 27.847656 4.203125 27.8125 4.203125 Z M 27.953125 4.683594 L 38.359375 15.089844 L 29.796875 15.089844 C 28.773438 15.089844 27.953125 14.269531 27.953125 13.246094 Z M 27.953125 4.683594 "/>
<path style=" stroke:none;fill-rule:nonzero;fill:rgb(12.941177%,12.941177%,12.941177%);fill-opacity:1;" d="M 9.921875 4.203125 C 8.746094 4.203125 7.796875 5.152344 7.796875 6.328125 L 7.796875 40.066406 C 7.796875 41.242188 8.746094 42.191406 9.921875 42.191406 L 36.714844 42.191406 C 37.890625 42.191406 38.839844 41.242188 38.839844 40.066406 L 38.839844 15.230469 C 38.839844 15.191406 38.824219 15.15625 38.796875 15.128906 L 27.914062 4.246094 C 27.886719 4.21875 27.851562 4.203125 27.8125 4.203125 Z M 9.921875 4.484375 L 27.753906 4.484375 L 38.558594 15.289062 L 38.558594 40.066406 C 38.558594 41.089844 37.738281 41.910156 36.714844 41.910156 L 9.921875 41.910156 C 8.898438 41.910156 8.078125 41.089844 8.078125 40.066406 L 8.078125 6.328125 C 8.078125 5.304688 8.898438 4.484375 9.921875 4.484375 Z M 9.921875 4.484375 "/>
<path style="fill-rule:nonzero;fill:url(#linear4);stroke-width:11.338583;stroke-linecap:round;stroke-linejoin:round;stroke:rgb(12.941177%,12.941177%,12.941177%);stroke-opacity:1;stroke-miterlimit:4;" d="M 619.940831 695.051773 C 608.918261 695.051773 599.94274 704.027294 599.94274 715.049864 L 599.94274 915.188243 L 636.00229 915.188243 C 656.630243 879.128692 695.366703 855.193969 739.929379 855.193969 C 806.537195 855.193969 860.075392 908.574701 860.075392 975.182517 C 860.075392 1041.632867 806.537195 1095.171065 739.929379 1095.171065 C 695.366703 1095.171065 656.630243 1071.078876 636.00229 1035.176791 L 599.94274 1035.176791 L 599.94274 1235.157704 C 599.94274 1246.180274 608.918261 1255.155795 619.940831 1255.155795 L 1000.062032 1255.155795 C 1011.084602 1255.155795 1020.060123 1246.180274 1020.060123 1235.157704 L 1020.060123 1035.176791 L 1055.962208 1035.176791 C 1076.590161 1071.078876 1115.484086 1095.171065 1160.046762 1095.171065 C 1226.497113 1095.171065 1280.03531 1041.632867 1280.03531 975.182517 C 1280.03531 908.574701 1226.497113 855.193969 1160.046762 855.193969 C 1115.484086 855.193969 1076.590161 879.128692 1055.962208 915.188243 L 1020.060123 915.188243 L 1020.060123 715.049864 C 1020.060123 704.027294 1011.084602 695.051773 1000.062032 695.051773 Z M 619.940831 695.051773 " transform="matrix(0.0248071,0,0,0.0248071,0,0)"/>
</g>
</svg>
